build/assets/img/svg/icon-instagram.svg

<svg width="60" height="60" viewBox="0 0 60 60" fill="none" xmlns="http://www.w3.org/2000/svg">
<rect width="60" height="60" rx="10" fill="#A62E41"/>
<path d="M29.9998 20.1172C24.6369 20.1172 20.1934 24.4841 20.1934 29.9236C20.1934 35.3631 24.5603 39.7301 29.9998 39.7301C35.4393 39.7301 39.8063 35.2865 39.8063 29.9236C39.8063 24.5607 35.3627 20.1172 29.9998 20.1172ZM29.9998 36.2059C26.5522 36.2059 23.7176 33.3712 23.7176 29.9236C23.7176 26.476 26.5522 23.6413 29.9998 23.6413C33.4474 23.6413 36.2821 26.476 36.2821 29.9236C36.2821 33.3712 33.4474 36.2059 29.9998 36.2059Z" fill="white"/>
<path d="M40.1905 22.1086C41.4176 22.1086 42.4123 21.1139 42.4123 19.8869C42.4123 18.6598 41.4176 17.6651 40.1905 17.6651C38.9635 17.6651 37.9688 18.6598 37.9688 19.8869C37.9688 21.1139 38.9635 22.1086 40.1905 22.1086Z" fill="white"/>
<path d="M45.9355 14.1411C43.9436 12.0726 41.1089 11 37.8911 11H22.1089C15.4435 11 11 15.4435 11 22.1089V37.8145C11 41.1089 12.0726 43.9436 14.2177 46.0121C16.2863 48.004 19.0444 49 22.1855 49H37.8145C41.1089 49 43.8669 47.9274 45.8589 46.0121C47.9274 44.0202 49 41.1855 49 37.8911V22.1089C49 18.8911 47.9274 16.1331 45.9355 14.1411ZM45.629 37.8911C45.629 40.2661 44.7863 42.1815 43.4073 43.4839C42.0282 44.7863 40.1129 45.4758 37.8145 45.4758H22.1855C19.8871 45.4758 17.9718 44.7863 16.5927 43.4839C15.2137 42.1048 14.5242 40.1895 14.5242 37.8145V22.1089C14.5242 19.8105 15.2137 17.8952 16.5927 16.5161C17.8952 15.2137 19.8871 14.5242 22.1855 14.5242H37.9677C40.2661 14.5242 42.1815 15.2137 43.5605 16.5927C44.8629 17.9718 45.629 19.8871 45.629 22.1089V37.8911Z" fill="white"/>
</svg>

<svg width="60" height="60" fill="none" xmlns="http://www.w3.org/2000/svg"><rect width="60" height="60" rx="10" fill="#A62E41"/><path d="M30 20.117c-5.363 0-9.807 4.367-9.807 9.807A9.776 9.776 0 0030 39.73c5.44 0 9.806-4.444 9.806-9.806 0-5.363-4.443-9.807-9.806-9.807zm0 16.089c-3.448 0-6.282-2.835-6.282-6.282 0-3.448 2.834-6.283 6.282-6.283 3.447 0 6.282 2.835 6.282 6.283 0 3.447-2.835 6.282-6.282 6.282zm10.19-14.097a2.222 2.222 0 100-4.444 2.222 2.222 0 000 4.444z" fill="#fff"/><path d="M45.935 14.141C43.944 12.073 41.11 11 37.891 11H22.11C15.443 11 11 15.444 11 22.109v15.706c0 3.294 1.073 6.129 3.218 8.197C16.286 48.004 19.044 49 22.186 49h15.629c3.294 0 6.052-1.073 8.044-2.988C47.927 44.02 49 41.185 49 37.892V22.108c0-3.218-1.073-5.976-3.065-7.968zm-.306 23.75c0 2.375-.843 4.29-2.222 5.593-1.379 1.302-3.294 1.992-5.592 1.992h-15.63c-2.298 0-4.213-.69-5.592-1.992-1.38-1.38-2.069-3.294-2.069-5.67V22.11c0-2.299.69-4.214 2.069-5.593 1.302-1.302 3.294-1.992 5.593-1.992h15.782c2.298 0 4.213.69 5.592 2.069 1.303 1.379 2.069 3.294 2.069 5.516v15.78z" fill="#fff"/></svg>
